X: 3177
T: FAIRLIE CASTLE
Q: "Strathspey."
R: Strathspey.
%R: strathspey
B: James Kerr "Merry Melodies" v.3 p.21 #177
Z: 2016 John Chambers <jc:trillian.mit.edu>
M: C
L: 1/8
K: Bb
ud |\
B<B G>B F<D D>F | B<B G>B c2- c>d |\
B<B G>B F<D D>F | (3GAB (3ABc B2-B :|
|: F |\
B<B d>B f<B B>b | B<B d>B c2-c>d |\
B<B d>B f<B d<b | (3gfe (3dec B3 :|

%%sep 1 1 500
%%sep 1 1 500

